assets/img/index/thirteen.svg

<svg width="34" height="33" viewBox="0 0 34 33" fill="none" xmlns="http://www.w3.org/2000/svg">
<path fill-rule="evenodd" clip-rule="evenodd" d="M31.0315 16.289C31.0315 23.6645 24.8034 29.6435 17.1206 29.6435C9.43785 29.6435 3.20977 23.6645 3.20977 16.289C3.20977 8.91357 9.43785 2.93462 17.1206 2.93462C24.8034 2.93462 31.0315 8.91357 31.0315 16.289ZM33.6562 16.289C33.6562 25.0561 26.2529 32.1632 17.1206 32.1632C7.98832 32.1632 0.585083 25.0561 0.585083 16.289C0.585083 7.52203 7.98832 0.414919 17.1206 0.414919C26.2529 0.414919 33.6562 7.52203 33.6562 16.289ZM15.0208 8.47792L12.1187 5.92412C10.0423 6.82242 8.29221 8.29272 7.0864 10.1259L8.45903 12.7615L6.15104 11.8752C5.60849 13.1603 5.30966 14.5652 5.30966 16.0372C5.30966 16.7302 5.37589 17.4083 5.50257 18.0662L9.50895 17.2969L13.1835 11.2496L12.3961 17.2969L7.3585 22.3433C7.90638 23.1025 8.55053 23.7928 9.27387 24.3981L9.24649 24.352L12.1336 22.0843L10.6331 25.3769C12.4295 26.4827 14.5659 27.1238 16.8583 27.1238C19.7036 27.1238 22.3086 26.1361 24.3214 24.4982L22.6324 22.3363L16.3332 21.5804L22.1075 19.8166L22.3699 16.541L19.4827 10.2417L24.2072 16.289V19.5646L27.044 21.2667C27.9137 19.7089 28.4069 17.9283 28.4069 16.0372C28.4069 13.509 27.5254 11.1785 26.0414 9.31334L23.6823 12.2575L24.8929 8.07348C22.8142 6.14028 19.981 4.95051 16.8583 4.95051C16.7704 4.95051 16.6829 4.95148 16.5956 4.95333V7.21804L17.383 8.47792L16.0706 13.5173L15.0208 8.47792Z" fill="#1F2326"/>
</svg>

<svg width="34" height="33" fill="none" xmlns="http://www.w3.org/2000/svg"><path fill-rule="evenodd" clip-rule="evenodd" d="M31.032 16.289c0 7.375-6.229 13.354-13.911 13.354-7.683 0-13.911-5.979-13.911-13.354 0-7.375 6.228-13.354 13.91-13.354 7.683 0 13.912 5.979 13.912 13.354zm2.624 0c0 8.767-7.403 15.874-16.535 15.874C7.988 32.163.585 25.056.585 16.29S7.988.415 17.121.415c9.132 0 16.535 7.107 16.535 15.874zM15.021 8.478l-2.902-2.554a11.47 11.47 0 00-5.033 4.202l1.373 2.636-2.308-.887a10.722 10.722 0 00-.648 6.191l4.006-.77 3.675-6.046-.788 6.047-5.038 5.046c.548.76 1.193 1.45 1.916 2.055l-.028-.046 2.888-2.268-1.5 3.293a11.845 11.845 0 006.224 1.747c2.846 0 5.45-.988 7.463-2.626l-1.689-2.162-6.299-.756 5.775-1.763.262-3.276-2.887-6.3 4.724 6.048v3.276l2.837 1.702a10.689 10.689 0 001.363-5.23 10.76 10.76 0 00-2.366-6.724l-2.359 2.944 1.21-4.184c-2.078-1.933-4.911-3.122-8.034-3.122-.088 0-.175 0-.262.002v2.265l.787 1.26-1.312 5.04-1.05-5.04z" fill="#1F2326"/></svg>
